X:1
T:Moriah, 87.87 D
T:Moriah, 87.87 D
T:Welsh Hymn Tune
T:Public Domain Courtesy of the Cyber Hymnal™
C:Welsh Hymn Tune
Z:Public Domain
Z:Courtesy of the Cyber Hymnal™
%%score ( 1 2 ) ( 3 4 )
L:1/8
Q:1/4=110
M:3/4
K:F
V:1 treble 
V:2 treble 
V:3 bass 
V:4 bass 
V:1
|: [FA]4 (Bc/d/) | (c3 A) F2 | [Ec]4 [Fc]2 | [CB]2 [CA]4 | [Fd]4 [Fd]2 | (c3 A) (GG/A/) | %6
 (B3 A) [EG]2 | F6 :| [Fc]4 [FA]2 | [Fc]4 [Fc]2 | [Fd]4 [Fc]2 | [EB]2 [FA]4 | [Fc]4 [FA]2 | %13
 [Cc]4 [Fc]2 | [Fd]4 ([Fc]>[EB]) | [FA]6 | [Fd]4 [Gd]2 | (c3 A) [DF]2 | [Ec]4 [Fc]2 | [CB]2 [CA]4 | %20
 [Fd]4 [Fd]2 | (c3 A) (FG/A/) | (B3 A) [EG]2 | F6 |] %24
V:2
|: x4 F2 | F4 F2 | x6 | x6 | x6 | C4 D2 | D4 x2 | F6 :| x6 | x6 | x6 | x6 | x6 | x6 | x6 | x6 | %16
 x6 | C4 x2 | x6 | x6 | x6 | C4 D2 | D4 x2 | F6 |] %24
V:3
|: F,4 (G,A,/B,/) | [F,A,]4 (A,=B,) | (C2 B,2) [D,A,]2 | [E,G,]2 [F,A,]4 | [B,,B,]4 [D,B,]2 | %5
 [F,A,]4 [D,A,]2 | [B,,G,]4 (CB,) | [F,A,]6 :| [F,A,]4 [F,C]2 | [A,C]4 [F,A,]2 | B,4 [A,C]2 | %11
 [G,C]2 [F,C]4 | [A,C]4 [F,C]2 | [E,G,]4 [F,A,]2 | B,4 C2 | [F,C]6 | B,4 [E,B,]2 | %17
 [F,A,]4 [D,A,]2 | (C2 B,2) [D,A,]2 | [E,G,]2 [F,A,]4 | [B,,B,]4 [D,B,]2 | [F,A,]4 [D,A,]2 | %22
 [B,,G,]4 (CB,) | [F,,A,]6 |] %24
V:4
|: F,4 F,2 | x4 D,2 | C,4 x2 | x6 | x6 | x6 | x4 C,2 | x6 :| x6 | x6 | B,4 x2 | x6 | x6 | x6 | %14
 B,4 (A,>G,) | x6 | (B,,2 D,2) x2 | x6 | C,4 x2 | x6 | x6 | x6 | x4 C,2 | x6 |] %24

